X:1
T:When the Toils of Life Are Over
T:When the Toils of Life Are Over
T:Charles Brenton Widmeyer
T:Charles Brenton Widmeyer, 1911
T:Public Domain Courtesy of the Cyber Hymnal™
T:Public Domain Courtesy of the Cyber Hymnal™
C:Charles Brenton Widmeyer
Z:Public Domain
Z:Courtesy of the Cyber Hymnal™
%%score ( 1 2 ) 3
L:1/8
Q:1/4=100
M:4/4
K:Ab
V:1 treble 
V:2 treble 
V:3 bass 
V:1
 [CE]>[CE] | [CA]>[CA] [CA]>[CA] [CG]>[CG] [CF]>[CF] | [CE]>[DF] [CE]>[B,D] [A,C]2 [CE]>[CE] | %3
w: 1.~When the|toils of life are o- ver, And we|lay our ar- mor down, And we|
w: 2.~Though the|way is some- times lone- ly, He will|hold me with His hand, Through the|
w: 3.~When the|last good- bye is spok- en And the|tear stains wiped a- way, And our|
w: 4.~When we|join the ran- somed ar- my In the|sum- mer land a- bove, And the|
 [CA]>[CA] [CA]>[CA] [=DA]>[DA] [DG]>[DA] | [DB]6 E>E | [=Ec]>[Ec] [Ec]>[EB] [FA]>[FA] [FG]>[FA] | %6
w: bid fare- well to earth with all its|cares, We shall|meet and greet our loved ones, And our|
w: test- ings and the tri- als I must|go. But I’ll|trust and glad- ly fol- low, For some-|
w: eyes shall catch a glimpse of glo- ry|fair, Then with|bound- ing hearts we’ll meet Him Who hath|
w: face of our dear Sav- ior we be-|hold, We will|sing and shout for- ev- er, And we’ll|
 [FB]>[FA] [DF]>[DA] [CE]2 [CE]>[CE] | [DF]3 [FB] [EA]2 [EG]2 | [EA]6 ||"^Refrain" [CA]>[EG] | %10
w: Christ we then shall crown, In the|new Je- ru- sa-|lem.||
w: time I’ll un- der- stand, In the|new Je- ru- sa-|lem.|There’ll be|
w: washed our sins a- way, In the|new Je- ru- sa-|lem.||
w: grow in perf- ect love, In the|new Je- ru- sa-|lem.||
 [DF]>[Fd] [Fd]>[Fd] [Fd]>[DF] [EG]>[DF] | [CE]>[=B,=D] [CE]>[CA] [Ec]2 [Ec]>[F=d] | %12
w: ||
w: sing- ing, there’ll be shout- ing When the|saints come march- ing home, In Je-|
w: ||
w: ||
 [Ec]>[DB] B4 [DB]>[Ec] | [DB]>[DA] A4 [CA]>[EG] | [DF]>[Fd] [Fd]>[Fd] [Fd]>[DF] [EG]>[DF] | %15
w: |||
w: ru- sa- lem, in Je-|ru- sa- lem, Wav- ing|palms with loud ho- san- nas As the|
w: |||
w: |||
 [CE]>[=B,=D] [CE]>[CA] [Ec]2 A>c | (z2 [Ae]>)[Fd] [Ec]>[DB] x2 | A6 x4 |] %18
w: |||
w: King shall take His throne, In the|* new Je- ru-||
w: |||
w: |||
V:2
 x2 | x8 | x8 | x8 | x8 | x8 | x8 | x8 | x6 || x2 | x8 | x8 | x2 (D>D D2) x2 | x2 (C>C C2) x2 | %14
 x8 | x8 | e4 A3/2 A/ x2 | (C>C D>D C6) |] %18
V:3
 [A,,A,]>[A,,A,] | [A,,E,]>[A,,E,] [A,,E,]>[A,,E,] [A,,A,]>[A,,A,] [A,,A,]>[A,,A,] | %2
 [A,,A,]>[A,,A,] [A,,A,]>[A,,E,] [A,,E,]2 [A,,A,]>[A,,A,] | %3
 [F,A,]>[F,A,] [F,A,]>[F,A,] [B,,B,]>[B,,B,] [B,,B,]>[B,,F,] | [E,G,]6 [E,G,]>[E,G,] | %5
 [C,G,]>[C,C] [C,G,]>[C,C] [F,C]>[F,C] [F,C]>[F,C] | %6
 [D,D]>[D,D] [D,A,]>[D,F,] [A,,A,]2 [A,,A,]>[A,,A,] | [D,A,]3 [D,D] [E,C]2 [E,B,]2 | [A,,C]6 || %9
 [F,A,]>[F,A,] | [D,A,]>[D,A,] [D,A,]>[D,A,] [D,A,]>[D,A,] [D,A,]>[D,A,] | %11
 [A,,A,]>[A,,A,] [A,,A,]>[A,,A,] [A,,A,]2 [E,A,]>[E,A,] | %12
 [E,A,]>[E,G,] ([E,G,]>[E,G,] [E,G,]2) [E,G,]>[E,G,] | %13
 [A,,E,]>[A,,E,] ([A,,E,]>[A,,E,] E,2) [A,,A,]>[C,A,] | %14
 [D,A,]>[D,A,] [D,A,]>[D,A,] [D,A,]>[D,A,] [D,A,]>[D,A,] | %15
 [A,,A,]>[A,,A,] [A,,A,]>[A,,A,] [A,,A,]2 z2 | z2 ([E,C]>[E,C] [E,C]>)[E,B,] [E,A,]>[E,G,] | %17
 ([A,,A,]>[A,,E,][A,,F,]>[A,,_F,] [A,,E,]6) |] %18

